ui/StatusQ/src/assets/img/icons/mask/dummyLineGraph.svg

<svg fill="none" height="127" viewBox="0 0 720 127" width="720" xmlns="http://www.w3.org/2000/svg" xmlns:xlink="http://www.w3.org/1999/xlink"><linearGradient id="a" gradientUnits="userSpaceOnUse" x1="-.000061" x2="720" y1="27.5785" y2="27.5785"><stop offset="0" stop-color="#d7dee4" stop-opacity=".25"/><stop offset="1" stop-color="#d7dee4" stop-opacity=".5"/></linearGradient><path d="m219.711 51.1867-87.587-33.8114-66.0622 28.551-66.06186104-14.4488v95.5225h720.00006104v-79.5702l-56.412-21.6017-93.526 26.1507-149.938-51.9788-93.526 36.1594-35.629-12.6793z" fill="url(#a)"/></svg>

<svg width="720" height="127" viewBox="0 0 720 127" fill="none" xmlns="http://www.w3.org/2000/svg">
<path d="M219.711 51.1867L132.124 17.3753L66.0618 45.9263L-6.10352e-05 31.4775V127H720V47.4298L663.588 25.8281L570.062 51.9788L420.124 0L326.598 36.1594L290.969 23.4801L219.711 51.1867Z" fill="url(#paint0_linear_9476_104484)"/>
<defs>
<linearGradient id="paint0_linear_9476_104484" x1="-6.10352e-05" y1="27.5785" x2="720" y2="27.5785" gradientUnits="userSpaceOnUse">
<stop stop-color="#D7DEE4" stop-opacity="0.25"/>
<stop offset="1" stop-color="#D7DEE4" stop-opacity="0.5"/>
</linearGradient>
</defs>
</svg>
